X: 10220
T: Diu Regnare
R: march
M: 
K: Dmajor
M:6/8
|:a|f2 a e>fg|f>ed B2 d|A>BA d>ef|f<ag e>de|
f2 a e>fg|f>ed B2 d|A>df a>gf|e3 d2:|
e|:f2 A A>de|f>ed B<GB|A>BA d>ef|f<ag e>de|
[1 f2 A A>de|f>ed B<GB|A>df a>gf|e3 d2e:|
[2 f2 a e>fg|f>ed B2 d|A>df a>gf|e3 d2||
|:f|A>BA d<AB|A>dA B<GB|A>BA d>ef|f<ag e2 e|
A>BA d<AB|A>dA B<GB|A>df a>gf|e3 d2:|
g|a>gf e<ge|f>ed B<gB|A>BA d>ef|f<ag e2 g|
a>gf e<ge|f<ad B<dB|A>df a>gf|e3 d2 g|
a>gf e<ge|f>ed B<gB|A>BA d>ef|f<ag e2 f|
A>BA B<de|f<ad B2 d|A>df a>gf|e3 d2 z||

